dist/svg/icons/link.svg

<svg height="16" width="16" xmlns="http://www.w3.org/2000/svg" viewBox="0 0 16 16">
  <path d="M4 9h1v1h-1c-1.5 0-3-1.69-3-3.5s1.55-3.5 3-3.5h4c1.45 0 3 1.69 3 3.5 0 1.41-0.91 2.72-2 3.25v-1.16c0.58-0.45 1-1.27 1-2.09 0-1.28-1.02-2.5-2-2.5H4c-0.98 0-2 1.22-2 2.5s1 2.5 2 2.5z m9-3h-1v1h1c1 0 2 1.22 2 2.5s-1.02 2.5-2 2.5H9c-0.98 0-2-1.22-2-2.5 0-0.83 0.42-1.64 1-2.09v-1.16c-1.09 0.53-2 1.84-2 3.25 0 1.81 1.55 3.5 3 3.5h4c1.45 0 3-1.69 3-3.5s-1.5-3.5-3-3.5z" />
</svg>

<svg xmlns="http://www.w3.org/2000/svg" width="16" height="16" viewBox="0 0 16 16"><path d="M4 9h1v1H4c-1.5 0-3-1.69-3-3.5S2.55 3 4 3h4c1.45 0 3 1.69 3 3.5 0 1.41-.91 2.72-2 3.25V8.59c.58-.45 1-1.27 1-2.09C10 5.22 8.98 4 8 4H4c-.98 0-2 1.22-2 2.5S3 9 4 9zm9-3h-1v1h1c1 0 2 1.22 2 2.5S13.98 12 13 12H9c-.98 0-2-1.22-2-2.5 0-.83.42-1.64 1-2.09V6.25c-1.09.53-2 1.84-2 3.25C6 11.31 7.55 13 9 13h4c1.45 0 3-1.69 3-3.5S14.5 6 13 6z"/></svg>
